src/assets/icons/IFIX.svg

<svg width="80" height="80" viewBox="0 0 80 80" fill="none" xmlns="http://www.w3.org/2000/svg">
<rect width="80" height="80" rx="8" fill="#2C4D54"/>
<g clip-path="url(#clip0_1_1147)">
<path d="M44.0938 55.8125V46.625C44.0938 46.2189 43.9324 45.8294 43.6453 45.5422C43.3581 45.2551 42.9686 45.0937 42.5625 45.0937H36.4375C36.0314 45.0937 35.6419 45.2551 35.3547 45.5422C35.0676 45.8294 34.9062 46.2189 34.9062 46.625V55.8125C34.9062 56.2186 34.7449 56.6081 34.4578 56.8952C34.1706 57.1824 33.7811 57.3437 33.375 57.3437H24.1875C23.7814 57.3437 23.3919 57.1824 23.1047 56.8952C22.8176 56.6081 22.6562 56.2186 22.6562 55.8125V38.1074C22.6597 37.8955 22.7055 37.6864 22.7909 37.4925C22.8764 37.2985 22.9998 37.1236 23.1539 36.9781L38.4664 23.0629C38.7487 22.8046 39.1174 22.6614 39.5 22.6614C39.8826 22.6614 40.2513 22.8046 40.5336 23.0629L55.8461 36.9781C56.0002 37.1236 56.1236 37.2985 56.2091 37.4925C56.2945 37.6864 56.3403 37.8955 56.3438 38.1074V55.8125C56.3438 56.2186 56.1824 56.6081 55.8953 56.8952C55.6081 57.1824 55.2186 57.3437 54.8125 57.3437H45.625C45.2189 57.3437 44.8294 57.1824 44.5422 56.8952C44.2551 56.6081 44.0938 56.2186 44.0938 55.8125Z" stroke="white" stroke-width="1.53125" stroke-linecap="round" stroke-linejoin="round"/>
</g>
<defs>
<clipPath id="clip0_1_1147">
<rect width="49" height="49" fill="white" transform="translate(15 16)"/>
</clipPath>
</defs>
</svg>

<svg width="80" height="80" fill="none" xmlns="http://www.w3.org/2000/svg"><rect width="80" height="80" rx="8" fill="#2C4D54"/><g clip-path="url(#a)"><path d="M44.094 55.813v-9.188a1.532 1.532 0 0 0-1.532-1.531h-6.124a1.532 1.532 0 0 0-1.532 1.531v9.188a1.531 1.531 0 0 1-1.531 1.53h-9.188a1.531 1.531 0 0 1-1.53-1.53V38.106a1.59 1.59 0 0 1 .497-1.129l15.312-13.915a1.531 1.531 0 0 1 2.068 0l15.312 13.915a1.588 1.588 0 0 1 .498 1.13v17.705a1.531 1.531 0 0 1-1.532 1.53h-9.187a1.531 1.531 0 0 1-1.531-1.53z" stroke="#fff" stroke-width="1.531" stroke-linecap="round" stroke-linejoin="round"/></g><defs><clipPath id="a"><path fill="#fff" transform="translate(15 16)" d="M0 0h49v49H0z"/></clipPath></defs></svg>
